img/zigzag-fill-tablet.svg

<svg width="768" height="18" viewBox="0 0 768 18" fill="none" xmlns="http://www.w3.org/2000/svg">
<path d="M770 17.5C763.958 17.5 760.803 14.1 758.252 11.3652C755.97 8.92609 754.292 7.15217 750.734 7.15217C747.109 7.15217 745.497 8.92609 743.215 11.3652C740.664 14.1 737.509 17.5 731.467 17.5C725.425 17.5 722.27 14.1 719.719 11.3652C717.437 8.92609 715.759 7.15217 712.201 7.15217C708.643 7.15217 706.964 8.92609 704.682 11.3652C702.131 14.1 698.976 17.5 692.934 17.5C686.892 17.5 683.737 14.1 681.186 11.3652C678.904 8.92609 677.226 7.15217 673.668 7.15217C670.043 7.15217 668.432 8.92609 666.149 11.3652C663.598 14.1 660.443 17.5 654.401 17.5C648.36 17.5 645.205 14.1 642.654 11.3652C640.371 8.92609 638.693 7.15217 635.135 7.15217C631.51 7.15217 629.899 8.92609 627.616 11.3652C624.797 14.1 621.642 17.5 615.6 17.5C609.558 17.5 606.403 14.1 603.852 11.3652C601.57 8.92609 599.891 7.15217 596.334 7.15217C592.708 7.15217 591.097 8.92609 588.815 11.3652C586.264 14.1 583.109 17.5 577.067 17.5C571.025 17.5 567.87 14.1 565.319 11.3652C563.037 8.92609 561.359 7.15217 557.801 7.15217C554.176 7.15217 552.565 8.92609 550.282 11.3652C547.597 14.1 544.442 17.5 538.4 17.5C532.358 17.5 529.203 14.1 526.652 11.3652C524.37 8.92609 522.691 7.15217 519.134 7.15217C515.508 7.15217 513.897 8.92609 511.615 11.3652C509.064 14.1 505.909 17.5 499.867 17.5C493.825 17.5 490.67 14.1 488.119 11.3652C485.837 8.92609 484.159 7.15217 480.601 7.15217C477.043 7.15217 475.365 8.92609 473.082 11.3652C470.464 14.1 467.242 17.5 461.2 17.5C455.158 17.5 452.003 14.1 449.452 11.3652C447.17 8.92609 445.491 7.15217 441.934 7.15217C438.309 7.15217 436.697 8.92609 434.415 11.3652C431.864 14.1 428.709 17.5 422.667 17.5C416.625 17.5 413.47 14.1 410.919 11.3652C408.637 8.92609 406.959 7.15217 403.401 7.15217C399.776 7.15217 398.165 8.92609 395.882 11.3652C393.331 14.1 390.176 17.5 384.134 17.5C378.093 17.5 374.937 14.1 372.386 11.3652C370.104 8.92609 368.426 7.15217 364.868 7.15217C361.31 7.15217 359.632 8.92609 357.349 11.3652C354.798 14.1 351.643 17.5 345.601 17.5C339.56 17.5 336.405 14.1 333.854 11.3652C331.571 8.92609 329.893 7.15217 326.335 7.15217C322.71 7.15217 321.099 8.92609 318.816 11.3652C316.265 14.1 313.11 17.5 307.069 17.5C301.027 17.5 297.872 14.1 295.321 11.3652C293.038 8.92609 291.36 7.15217 287.802 7.15217C284.177 7.15217 282.566 8.92609 280.283 11.3652C277.733 14.1 274.577 17.5 268.536 17.5C262.494 17.5 259.339 14.1 256.788 11.3652C254.505 8.92609 252.827 7.15217 249.269 7.15217C245.644 7.15217 244.033 8.92609 241.751 11.3652C239.2 14.1 236.045 17.5 230.003 17.5C223.961 17.5 220.806 14.1 218.255 11.3652C215.973 8.92609 214.294 7.15217 210.736 7.15217C207.178 7.15217 205.5 8.92609 203.218 11.3652C200.667 14.1 197.512 17.5 191.47 17.5C185.428 17.5 182.273 14.1 179.722 11.3652C177.44 8.92609 175.761 7.15217 172.203 7.15217C168.578 7.15217 166.967 8.92609 164.685 11.3652C162.134 14.1 158.979 17.5 152.937 17.5C146.895 17.5 143.74 14.1 141.189 11.3652C138.907 8.92609 137.229 7.15217 133.671 7.15217C130.046 7.15217 128.434 8.92609 126.152 11.3652C123.601 14.1 120.446 17.5 114.404 17.5C108.362 17.5 105.207 14.1 102.656 11.3652C100.374 8.92609 98.6956 7.15217 95.1377 7.15217C91.5127 7.15217 89.9016 8.92609 87.6191 11.3652C84.464 14.1 81.2417 17.5 75.2 17.5C69.1583 17.5 66.0031 14.1 63.4522 11.3652C61.1697 8.92609 59.4915 7.15217 55.9336 7.15217C52.3085 7.15217 50.6974 8.92609 48.415 11.3652C45.864 14.1 42.7089 17.5 36.6671 17.5C30.6254 17.5 27.4703 14.1 24.9193 11.3652C22.5697 8.92609 20.8915 7.15217 17.3336 7.15217C13.7085 7.15217 12.0974 8.92609 9.81496 11.3652C7.19687 14.1 4.04174 17.5 -2 17.5V10.8478C1.62504 10.8478 3.23617 9.07391 5.51861 6.63478C8.06956 3.9 11.2247 0.5 17.3336 0.5C23.3753 0.5 26.5304 3.9 29.0814 6.63478C31.3638 9.07391 33.0421 10.8478 36.6 10.8478C40.225 10.8478 41.8362 9.07391 44.1186 6.63478C46.6696 3.9 49.8918 0.5 55.9336 0.5C61.9753 0.5 65.1304 3.9 67.6814 6.63478C69.9638 9.07391 71.6421 10.8478 75.2 10.8478C78.825 10.8478 80.4362 9.07391 82.7186 6.63478C85.2696 3.9 88.4247 0.5 94.4664 0.5C100.508 0.5 103.663 3.9 106.214 6.63478C108.497 9.07391 110.175 10.8478 113.733 10.8478C117.358 10.8478 118.969 9.07391 121.251 6.63478C123.802 3.9 126.958 0.5 132.999 0.5C139.041 0.5 142.196 3.9 144.747 6.63478C147.03 9.07391 148.708 10.8478 152.266 10.8478C155.891 10.8478 157.502 9.07391 159.784 6.63478C162.335 3.9 165.49 0.5 171.532 0.5C177.574 0.5 180.729 3.9 183.28 6.63478C185.562 9.07391 187.241 10.8478 190.799 10.8478C194.424 10.8478 196.035 9.07391 198.317 6.63478C200.868 3.9 204.023 0.5 210.065 0.5C216.107 0.5 219.262 3.9 221.813 6.63478C224.095 9.07391 225.774 10.8478 229.331 10.8478C232.957 10.8478 234.568 9.07391 236.85 6.63478C239.401 3.9 242.556 0.5 248.598 0.5C254.64 0.5 257.795 3.9 260.346 6.63478C262.628 9.07391 264.306 10.8478 267.864 10.8478C271.422 10.8478 273.101 9.07391 275.383 6.63478C277.934 3.9 281.089 0.5 287.131 0.5C293.173 0.5 296.328 3.9 298.879 6.63478C301.161 9.07391 302.839 10.8478 306.397 10.8478C310.022 10.8478 311.633 9.07391 313.916 6.63478C316.467 3.9 319.622 0.5 325.664 0.5C331.705 0.5 334.861 3.9 337.411 6.63478C339.694 9.07391 341.372 10.8478 344.93 10.8478C348.555 10.8478 350.166 9.07391 352.449 6.63478C355 3.9 358.155 0.5 364.197 0.5C370.238 0.5 373.393 3.9 375.944 6.63478C378.227 9.07391 379.905 10.8478 383.463 10.8478C387.088 10.8478 388.699 9.07391 390.982 6.63478C393.533 3.9 396.688 0.5 402.729 0.5C408.771 0.5 411.926 3.9 414.477 6.63478C416.76 9.07391 418.438 10.8478 421.996 10.8478C425.621 10.8478 427.232 9.07391 429.514 6.63478C432.065 3.9 435.221 0.5 441.262 0.5C447.304 0.5 450.459 3.9 453.01 6.63478C455.293 9.07391 456.971 10.8478 460.529 10.8478C464.154 10.8478 465.765 9.07391 468.047 6.63478C470.598 3.9 473.753 0.5 479.795 0.5C485.837 0.5 488.992 3.9 491.543 6.63478C493.825 9.07391 495.504 10.8478 499.062 10.8478C502.687 10.8478 504.298 9.07391 506.58 6.63478C509.131 3.9 512.286 0.5 518.328 0.5C524.37 0.5 527.525 3.9 530.076 6.63478C532.358 9.07391 534.036 10.8478 537.594 10.8478C541.219 10.8478 542.831 9.07391 545.113 6.63478C548.47 3.9 551.625 0.5 557.734 0.5C563.775 0.5 566.93 3.9 569.481 6.63478C571.764 9.07391 573.442 10.8478 577 10.8478C580.558 10.8478 582.236 9.07391 584.519 6.63478C587.07 3.9 590.225 0.5 596.266 0.5C602.308 0.5 605.463 3.9 608.014 6.63478C610.297 9.07391 611.975 10.8478 615.533 10.8478C619.091 10.8478 620.769 9.07391 623.051 6.63478C625.67 3.9 628.825 0.5 634.934 0.5C641.042 0.5 644.13 3.9 646.681 6.63478C648.964 9.07391 650.642 10.8478 654.2 10.8478C657.758 10.8478 659.436 9.07391 661.719 6.63478C664.27 3.9 667.425 0.5 673.466 0.5C679.508 0.5 682.663 3.9 685.214 6.63478C687.497 9.07391 689.175 10.8478 692.733 10.8478C696.358 10.8478 697.969 9.07391 700.251 6.63478C702.802 3.9 705.958 0.5 711.999 0.5C718.041 0.5 721.196 3.9 723.747 6.63478C726.03 9.07391 727.708 10.8478 731.266 10.8478C734.824 10.8478 736.502 9.07391 738.784 6.63478C741.335 3.9 744.49 0.5 750.532 0.5C756.574 0.5 759.729 3.9 762.28 6.63478C764.562 9.07391 766.241 10.8478 769.799 10.8478V17.5H770Z" fill="#F1F1F1"/>
</svg>

<svg width="768" height="18" fill="none" xmlns="http://www.w3.org/2000/svg"><path d="M770 17.5c-6.042 0-9.197-3.4-11.748-6.135-2.282-2.439-3.96-4.213-7.518-4.213-3.625 0-5.237 1.774-7.519 4.213-2.551 2.735-5.706 6.135-11.748 6.135-6.042 0-9.197-3.4-11.748-6.135-2.282-2.439-3.96-4.213-7.518-4.213s-5.237 1.774-7.519 4.213c-2.551 2.735-5.706 6.135-11.748 6.135-6.042 0-9.197-3.4-11.748-6.135-2.282-2.439-3.96-4.213-7.518-4.213-3.625 0-5.236 1.774-7.519 4.213-2.551 2.735-5.706 6.135-11.748 6.135-6.041 0-9.196-3.4-11.747-6.135-2.283-2.439-3.961-4.213-7.519-4.213-3.625 0-5.236 1.774-7.519 4.213-2.819 2.735-5.974 6.135-12.016 6.135s-9.197-3.4-11.748-6.135c-2.282-2.439-3.961-4.213-7.518-4.213-3.626 0-5.237 1.774-7.519 4.213-2.551 2.735-5.706 6.135-11.748 6.135-6.042 0-9.197-3.4-11.748-6.135-2.282-2.439-3.96-4.213-7.518-4.213-3.625 0-5.236 1.774-7.519 4.213-2.685 2.735-5.84 6.135-11.882 6.135s-9.197-3.4-11.748-6.135c-2.282-2.439-3.961-4.213-7.518-4.213-3.626 0-5.237 1.774-7.519 4.213-2.551 2.735-5.706 6.135-11.748 6.135-6.042 0-9.197-3.4-11.748-6.135-2.282-2.439-3.96-4.213-7.518-4.213s-5.236 1.774-7.519 4.213c-2.618 2.735-5.84 6.135-11.882 6.135s-9.197-3.4-11.748-6.135c-2.282-2.439-3.961-4.213-7.518-4.213-3.625 0-5.237 1.774-7.519 4.213-2.551 2.735-5.706 6.135-11.748 6.135-6.042 0-9.197-3.4-11.748-6.135-2.282-2.439-3.96-4.213-7.518-4.213-3.625 0-5.236 1.774-7.519 4.213-2.551 2.735-5.706 6.135-11.748 6.135-6.041 0-9.197-3.4-11.748-6.135-2.282-2.439-3.96-4.213-7.518-4.213s-5.236 1.774-7.519 4.213c-2.551 2.735-5.706 6.135-11.748 6.135-6.041 0-9.196-3.4-11.747-6.135-2.283-2.439-3.961-4.213-7.519-4.213-3.625 0-5.236 1.774-7.519 4.213-2.551 2.735-5.706 6.135-11.747 6.135-6.042 0-9.197-3.4-11.748-6.135-2.283-2.439-3.961-4.213-7.519-4.213-3.625 0-5.236 1.774-7.519 4.213-2.55 2.735-5.706 6.135-11.747 6.135-6.042 0-9.197-3.4-11.748-6.135-2.283-2.439-3.961-4.213-7.519-4.213-3.625 0-5.236 1.774-7.518 4.213-2.551 2.735-5.706 6.135-11.748 6.135-6.042 0-9.197-3.4-11.748-6.135-2.282-2.439-3.961-4.213-7.519-4.213-3.558 0-5.236 1.774-7.518 4.213-2.551 2.735-5.706 6.135-11.748 6.135-6.042 0-9.197-3.4-11.748-6.135-2.282-2.439-3.961-4.213-7.519-4.213-3.625 0-5.236 1.774-7.518 4.213-2.551 2.735-5.706 6.135-11.748 6.135-6.042 0-9.197-3.4-11.748-6.135-2.282-2.439-3.96-4.213-7.518-4.213-3.625 0-5.237 1.774-7.519 4.213-2.551 2.735-5.706 6.135-11.748 6.135-6.042 0-9.197-3.4-11.748-6.135-2.282-2.439-3.96-4.213-7.518-4.213-3.625 0-5.236 1.774-7.519 4.213C84.464 14.1 81.242 17.5 75.2 17.5c-6.042 0-9.197-3.4-11.748-6.135-2.282-2.439-3.96-4.213-7.518-4.213-3.625 0-5.237 1.774-7.519 4.213C45.864 14.1 42.709 17.5 36.667 17.5c-6.042 0-9.197-3.4-11.748-6.135-2.35-2.439-4.027-4.213-7.585-4.213-3.625 0-5.237 1.774-7.519 4.213C7.197 14.1 4.042 17.5-2 17.5v-6.652c3.625 0 5.236-1.774 7.519-4.213C8.069 3.9 11.225.5 17.334.5c6.041 0 9.196 3.4 11.747 6.135 2.283 2.439 3.961 4.213 7.519 4.213 3.625 0 5.236-1.774 7.519-4.213C46.669 3.9 49.892.5 55.934.5c6.041 0 9.196 3.4 11.747 6.135 2.283 2.439 3.961 4.213 7.519 4.213 3.625 0 5.236-1.774 7.519-4.213C85.269 3.9 88.425.5 94.466.5c6.042 0 9.197 3.4 11.748 6.135 2.283 2.439 3.961 4.213 7.519 4.213 3.625 0 5.236-1.774 7.518-4.213C123.802 3.9 126.958.5 132.999.5c6.042 0 9.197 3.4 11.748 6.135 2.283 2.439 3.961 4.213 7.519 4.213 3.625 0 5.236-1.774 7.518-4.213C162.335 3.9 165.49.5 171.532.5c6.042 0 9.197 3.4 11.748 6.135 2.282 2.439 3.961 4.213 7.519 4.213 3.625 0 5.236-1.774 7.518-4.213C200.868 3.9 204.023.5 210.065.5c6.042 0 9.197 3.4 11.748 6.135 2.282 2.439 3.961 4.213 7.518 4.213 3.626 0 5.237-1.774 7.519-4.213C239.401 3.9 242.556.5 248.598.5c6.042 0 9.197 3.4 11.748 6.135 2.282 2.439 3.96 4.213 7.518 4.213s5.237-1.774 7.519-4.213C277.934 3.9 281.089.5 287.131.5c6.042 0 9.197 3.4 11.748 6.135 2.282 2.439 3.96 4.213 7.518 4.213 3.625 0 5.236-1.774 7.519-4.213C316.467 3.9 319.622.5 325.664.5c6.041 0 9.197 3.4 11.747 6.135 2.283 2.439 3.961 4.213 7.519 4.213 3.625 0 5.236-1.774 7.519-4.213C355 3.9 358.155.5 364.197.5c6.041 0 9.196 3.4 11.747 6.135 2.283 2.439 3.961 4.213 7.519 4.213 3.625 0 5.236-1.774 7.519-4.213C393.533 3.9 396.688.5 402.729.5c6.042 0 9.197 3.4 11.748 6.135 2.283 2.439 3.961 4.213 7.519 4.213 3.625 0 5.236-1.774 7.518-4.213C432.065 3.9 435.221.5 441.262.5c6.042 0 9.197 3.4 11.748 6.135 2.283 2.439 3.961 4.213 7.519 4.213 3.625 0 5.236-1.774 7.518-4.213C470.598 3.9 473.753.5 479.795.5c6.042 0 9.197 3.4 11.748 6.135 2.282 2.439 3.961 4.213 7.519 4.213 3.625 0 5.236-1.774 7.518-4.213C509.131 3.9 512.286.5 518.328.5c6.042 0 9.197 3.4 11.748 6.135 2.282 2.439 3.96 4.213 7.518 4.213 3.625 0 5.237-1.774 7.519-4.213C548.47 3.9 551.625.5 557.734.5c6.041 0 9.196 3.4 11.747 6.135 2.283 2.439 3.961 4.213 7.519 4.213 3.558 0 5.236-1.774 7.519-4.213C587.07 3.9 590.225.5 596.266.5c6.042 0 9.197 3.4 11.748 6.135 2.283 2.439 3.961 4.213 7.519 4.213 3.558 0 5.236-1.774 7.518-4.213C625.67 3.9 628.825.5 634.934.5c6.108 0 9.196 3.4 11.747 6.135 2.283 2.439 3.961 4.213 7.519 4.213 3.558 0 5.236-1.774 7.519-4.213C664.27 3.9 667.425.5 673.466.5c6.042 0 9.197 3.4 11.748 6.135 2.283 2.439 3.961 4.213 7.519 4.213 3.625 0 5.236-1.774 7.518-4.213C702.802 3.9 705.958.5 711.999.5c6.042 0 9.197 3.4 11.748 6.135 2.283 2.439 3.961 4.213 7.519 4.213 3.558 0 5.236-1.774 7.518-4.213C741.335 3.9 744.49.5 750.532.5c6.042 0 9.197 3.4 11.748 6.135 2.282 2.439 3.961 4.213 7.519 4.213V17.5H770z" fill="#F1F1F1"/></svg>
